X:1
T:Title
%%score ( 1 2 ) { 3 | 4 }
L:1/8
Q:1/4=115
M:4/4
K:F
V:1 treble nm="Grand Piano, Staff"
V:2 treble 
V:3 treble nm="Choir Pad, Glebe Field, 77.77"
V:4 bass 
V:1
 z4 z2 .G2 | [FB]2 [EB]2 [FA]4 | [Fc]3 [FA] [FB]2 [Fc]2 | [Fd]2 [FG]2 [EG]4 | %4
 [Ec]3 [_Ec] [Dc]2 [DA]2 | [DB]2 GA [GB]4 | [FA]3 [FB] [Fc]2 [Fd]2 | [FA]2 [EG]2 F4- | F4 z4 |] %9
V:2
 F3 F F2 F-[FA] | x8 | x8 | x8 | x8 | x8 | x8 | x8 | x8 |] %9
V:3
 A,3 D C2 C2 | D2 C2 C4 | A,3 C B,2 A,2 | G,2[K:treble] D2 C4 | C3 B, A,2 C2 | B,2 D2 C4 | %6
 C3[K:bass] B, B,A,G,F, | C2 B,2 A,4- | A,4 z4 |] %9
V:4
 F,3 B, A,2 A,2 | G,2 G,2 F,4 | F,3 E, D,2 C,2 | B,,2 =B,,2 C,4 | A,3 G, ^F,2 F,2 | G,2 F,2 E,4 | %6
 F,2 E,D, C,2 B,,2 | C,2 C,2 F,4- | F,4 z4 |] %9

